src/assets/icons/app/bluetooth.svg

<?xml version="1.0" encoding="UTF-8"?>
<svg width="24px" height="24px" viewBox="0 0 24 24" version="1.1" xmlns="http://www.w3.org/2000/svg" xmlns:xlink="http://www.w3.org/1999/xlink">
    <title>app-bluetooth</title>
    <g id="app-bluetooth" stroke="none" stroke-width="1" fill="none" fill-rule="evenodd">
        <path d="M10.6401844,1 L19.3092235,6.77935942 L13.2021844,11.8685171 L19.2022343,16.8685171 L10.6401844,24.0035587 L10.6401844,14.0035171 L6.2803688,17.6367384 L5,16.1002958 L10.0771844,11.8685171 L5,7.63673837 L6.2803688,6.10029581 L10.6401844,9.73251709 L10.6401844,1 Z M12.6401844,14.0045171 L12.6401844,19.7325171 L16.0771844,16.8685171 L12.6401844,14.0045171 Z M12.6401844,4.73751709 L12.6401844,9.73251709 L15.9701844,6.95751709 L12.6401844,4.73751709 Z" id="Combined-Shape" fill="#523178" fill-rule="nonzero"></path>
    </g>
</svg>

<svg xmlns="http://www.w3.org/2000/svg" viewBox="0 0 24 24"><defs/><path fill="currentColor" fill-rule="nonzero" d="M10.64 1l8.67 5.78-6.1 5.09 6 5L10.63 24V14l-4.36 3.64L5 16.1l5.08-4.23L5 7.64 6.28 6.1l4.36 3.63V1zm2 13v5.73l3.44-2.86L12.64 14zm0-9.26v5l3.33-2.78-3.33-2.22z"/></svg>
